X:19
T:Legacy,The. RHu.019
S:R.Hughes MS,1823,Whitchurch,Shrops.
A:Whitchurch, Shropshire
Z:Neil Brookes 2006
M:6/8
L:1/8
Q:3/8=120
R:Jig
K:C
c2c cGE|g2g gec|c2d ede|A2Bc3::!
ceg c’2c’|bag agf|ceg c’2c’|ba^g a2b|!
c’2c’ bag|a2a gec|c2d ede|A2B c3|]

